X:1
T:Title
L:1/8
M:3/4
I:linebreak $
K:C
V:1 treble nm="Voice"
V:1
"C" e2 (3eee eg | e2 (3eee eg |"G" fd BG AB |"C" (3ccc cB AG |"C" e2 (3eee eg | e2 (3eee eg | %6
"G" fd BG AB |"C" c3 B AG ::"C" g2 ge ae |"G" g2 (3GGG GA | PB2"F" AB cA |"G" B2 PA2 G2 | %12
"C" g2 ge ae |"G" g2"F" PA2 AG |"G" gf ed Bg |"C" c3 B AG :| %16
